X: 217
T: Game Song
C: Teton Sioux band 1911-1914
N: Derived from sioux212.krn
O: South Dakota, U.S.A.
N: Teton Sioux Music by Frances Densmore, 1918
Z: transcribed to **kern format by Craig Sapp
L: 1/8
M: 2/4
Q: 1/4=58
K: B clef=bass
%%linebreak <none>
F,2 [I:setbarnb 1]| 
F2F2 | 
G2(3F F F | 
D4 | 
D2(3F F F | 
C4 | 
B,2(3D D D | 
C4 | 
D2(3C C C | 
B,4 | 
B,2B, C | 
B,3G, | 
C2B,3/ G,/ ||  
[M:3/4]F, F,2<F,2F, | 
F,6 |]  



